app/component-library/components/Icons/Icon/assets/coin.svg

<svg width="24" height="24" viewBox="0 0 24 24" fill="none" xmlns="http://www.w3.org/2000/svg">
<path d="M22.2006 16.7501C21.8706 19.4101 19.6906 21.5901 17.0306 21.9201C15.4206 22.1201 13.9206 21.6801 12.7506 20.8201C12.0806 20.3301 12.2406 19.2901 13.0406 19.0501C16.0506 18.1401 18.4206 15.7601 19.3406 12.7501C19.5806 11.9601 20.6206 11.8001 21.1106 12.4601C21.9606 13.6401 22.4006 15.1401 22.2006 16.7501Z" fill="currentColor"/>
<path d="M10.2708 2C5.86076 2 2.28076 5.58 2.28076 9.99C2.28076 14.4 5.86076 17.98 10.2708 17.98C14.6808 17.98 18.2608 14.4 18.2608 9.99C18.2508 5.58 14.6808 2 10.2708 2ZM9.33076 8.87L11.7408 9.71C12.6108 10.02 13.0308 10.63 13.0308 11.57C13.0308 12.65 12.1708 13.54 11.1208 13.54H11.0308V13.59C11.0308 14 10.6908 14.34 10.2808 14.34C9.87076 14.34 9.53076 14 9.53076 13.59V13.53C8.42076 13.48 7.53076 12.55 7.53076 11.39C7.53076 10.98 7.87076 10.64 8.28076 10.64C8.69076 10.64 9.03076 10.98 9.03076 11.39C9.03076 11.75 9.29076 12.04 9.61076 12.04H11.1108C11.3408 12.04 11.5208 11.83 11.5208 11.57C11.5208 11.22 11.4608 11.2 11.2308 11.12L8.82076 10.28C7.96076 9.98 7.53076 9.37 7.53076 8.42C7.53076 7.34 8.39076 6.45 9.44076 6.45H9.53076V6.41C9.53076 6 9.87076 5.66 10.2808 5.66C10.6908 5.66 11.0308 6 11.0308 6.41V6.47C12.1408 6.52 13.0308 7.45 13.0308 8.61C13.0308 9.02 12.6908 9.36 12.2808 9.36C11.8708 9.36 11.5308 9.02 11.5308 8.61C11.5308 8.25 11.2708 7.96 10.9508 7.96H9.45076C9.22076 7.96 9.04076 8.17 9.04076 8.43C9.03076 8.77 9.09076 8.79 9.33076 8.87Z" fill="currentColor"/>
</svg>

<svg xmlns="http://www.w3.org/2000/svg" width="24" height="24" viewBox="0 0 24 24" fill="none"><path d="M22.2 16.75c-.33 2.66-2.51 4.84-5.17 5.17-1.61.2-3.11-.24-4.28-1.1-.67-.49-.51-1.53.29-1.77a9.486 9.486 0 0 0 6.3-6.3c.24-.79 1.28-.95 1.77-.29a6.02 6.02 0 0 1 1.09 4.29z" fill="currentColor"/><path d="M10.27 2C5.86 2 2.28 5.58 2.28 9.99s3.58 7.99 7.99 7.99 7.99-3.58 7.99-7.99C18.25 5.58 14.68 2 10.27 2zm-.94 6.87 2.41.84c.87.31 1.29.92 1.29 1.86 0 1.08-.86 1.97-1.91 1.97h-.09v.05c0 .41-.34.75-.75.75s-.75-.34-.75-.75v-.06c-1.11-.05-2-.98-2-2.14 0-.41.34-.75.75-.75s.75.34.75.75c0 .36.26.65.58.65h1.5c.23 0 .41-.21.41-.47 0-.35-.06-.37-.29-.45l-2.41-.84c-.86-.3-1.29-.91-1.29-1.86 0-1.08.86-1.97 1.91-1.97h.09v-.04c0-.41.34-.75.75-.75s.75.34.75.75v.06c1.11.05 2 .98 2 2.14 0 .41-.34.75-.75.75s-.75-.34-.75-.75c0-.36-.26-.65-.58-.65h-1.5c-.23 0-.41.21-.41.47-.01.34.05.36.29.44z" fill="currentColor"/></svg>
